sourses/img/Instagram.svg

<svg width="24" height="24" viewBox="0 0 24 24" fill="none" xmlns="http://www.w3.org/2000/svg">
<path fill-rule="evenodd" clip-rule="evenodd" d="M12 0C5.37258 0 0 5.37258 0 12C0 18.6274 5.37258 24 12 24C18.6274 24 24 18.6274 24 12C24 5.37258 18.6274 0 12 0ZM9.36164 5.63867C10.0443 5.6076 10.2624 5.6 12.0006 5.6H11.9986C13.7373 5.6 13.9546 5.6076 14.6373 5.63867C15.3186 5.66987 15.784 5.77774 16.192 5.936C16.6133 6.09934 16.9693 6.31801 17.3253 6.67401C17.6813 7.02975 17.9 7.38682 18.064 7.80776C18.2213 8.21469 18.3293 8.67977 18.3613 9.36111C18.392 10.0438 18.4 10.2619 18.4 12.0001C18.4 13.7382 18.392 13.9558 18.3613 14.6385C18.3293 15.3196 18.2213 15.7848 18.064 16.1918C17.9 16.6126 17.6813 16.9697 17.3253 17.3255C16.9697 17.6815 16.6132 17.9007 16.1924 18.0641C15.7852 18.2224 15.3196 18.3303 14.6382 18.3615C13.9556 18.3925 13.7381 18.4001 11.9998 18.4001C10.2618 18.4001 10.0438 18.3925 9.36111 18.3615C8.6799 18.3303 8.21469 18.2224 7.80749 18.0641C7.38682 17.9007 7.02975 17.6815 6.67414 17.3255C6.31827 16.9697 6.09961 16.6126 5.936 16.1917C5.77787 15.7848 5.67 15.3197 5.63867 14.6384C5.60773 13.9557 5.6 13.7382 5.6 12.0001C5.6 10.2619 5.608 10.0436 5.63853 9.36097C5.6692 8.6799 5.7772 8.21469 5.93587 7.80762C6.09987 7.38682 6.31854 7.02975 6.67454 6.67401C7.03028 6.31814 7.38735 6.09947 7.80829 5.936C8.21523 5.77774 8.6803 5.66987 9.36164 5.63867Z" fill="#D7A950"/>
<path fill-rule="evenodd" clip-rule="evenodd" d="M11.4265 6.75334C11.538 6.75317 11.6579 6.75322 11.7873 6.75328L12.0006 6.75334C13.7094 6.75334 13.912 6.75947 14.5868 6.79014C15.2108 6.81867 15.5495 6.92294 15.7751 7.01054C16.0737 7.12654 16.2867 7.26521 16.5105 7.48921C16.7345 7.71322 16.8732 7.92655 16.9895 8.22522C17.0771 8.45056 17.1815 8.78923 17.2099 9.41323C17.2405 10.0879 17.2472 10.2906 17.2472 11.9986C17.2472 13.7066 17.2405 13.9093 17.2099 14.584C17.1813 15.208 17.0771 15.5466 16.9895 15.772C16.8735 16.0706 16.7345 16.2833 16.5105 16.5072C16.2865 16.7312 16.0739 16.8698 15.7751 16.9858C15.5497 17.0738 15.2108 17.1778 14.5868 17.2064C13.9121 17.237 13.7094 17.2437 12.0006 17.2437C10.2917 17.2437 10.0891 17.237 9.41447 17.2064C8.79046 17.1776 8.45179 17.0733 8.22606 16.9857C7.92739 16.8697 7.71405 16.731 7.49005 16.507C7.26604 16.283 7.12738 16.0702 7.01111 15.7714C6.92351 15.5461 6.81911 15.2074 6.79071 14.5834C6.76004 13.9087 6.75391 13.7061 6.75391 11.997C6.75391 10.2879 6.76004 10.0863 6.79071 9.41163C6.81924 8.78763 6.92351 8.44896 7.01111 8.22335C7.12711 7.92469 7.26604 7.71135 7.49005 7.48735C7.71405 7.26334 7.92739 7.12468 8.22606 7.00841C8.45166 6.92041 8.79046 6.81641 9.41447 6.78774C10.0049 6.76107 10.2337 6.75307 11.4265 6.75174V6.75334ZM15.4169 7.81602C14.9929 7.81602 14.6489 8.15962 14.6489 8.58376C14.6489 9.00776 14.9929 9.35176 15.4169 9.35176C15.8409 9.35176 16.1849 9.00776 16.1849 8.58376C16.1849 8.15975 15.8409 7.81575 15.4169 7.81575V7.81602ZM8.71389 12.0001C8.71389 10.185 10.1854 8.71343 12.0005 8.71336C13.8155 8.71336 15.2868 10.185 15.2868 12.0001C15.2868 13.8151 13.8157 15.2861 12.0006 15.2861C10.1855 15.2861 8.71389 13.8151 8.71389 12.0001Z" fill="#D7A950"/>
<path fill-rule="evenodd" clip-rule="evenodd" d="M12.0005 9.86671C13.1787 9.86671 14.1339 10.8218 14.1339 12.0001C14.1339 13.1782 13.1787 14.1334 12.0005 14.1334C10.8223 14.1334 9.86719 13.1782 9.86719 12.0001C9.86719 10.8218 10.8223 9.86671 12.0005 9.86671V9.86671Z" fill="#D7A950"/>
</svg>

<svg width="24" height="24" fill="none" xmlns="http://www.w3.org/2000/svg"><path fill-rule="evenodd" clip-rule="evenodd" d="M12 0C5.373 0 0 5.373 0 12s5.373 12 12 12 12-5.373 12-12S18.627 0 12 0zM9.362 5.639c.682-.031.9-.039 2.639-.039h-.002c1.738 0 1.956.008 2.638.039.682.03 1.147.139 1.555.297.421.163.777.382 1.133.738s.575.713.739 1.134c.157.407.265.872.297 1.553.031.683.039.9.039 2.64 0 1.737-.008 1.955-.039 2.638-.032.68-.14 1.146-.297 1.553-.164.42-.383.778-.739 1.134a3.13 3.13 0 01-1.133.738c-.407.158-.872.266-1.554.297-.682.031-.9.04-2.638.04s-1.956-.009-2.639-.04c-.681-.03-1.146-.139-1.554-.297a3.133 3.133 0 01-1.133-.738 3.137 3.137 0 01-.738-1.134c-.158-.407-.266-.872-.297-1.554-.031-.682-.039-.9-.039-2.638s.008-1.956.039-2.639c.03-.681.138-1.146.297-1.553.164-.421.383-.778.739-1.134a3.134 3.134 0 011.133-.738c.407-.158.872-.266 1.554-.297z" fill="#D7A950"/><path fill-rule="evenodd" clip-rule="evenodd" d="M11.427 6.753H12c1.708 0 1.911.006 2.586.037.624.029.963.133 1.188.22.299.117.512.255.736.48.224.223.362.437.479.735.087.226.192.564.22 1.188.03.675.037.878.037 2.586 0 1.708-.006 1.91-.037 2.585-.029.624-.133.963-.22 1.188a1.98 1.98 0 01-.48.735 1.979 1.979 0 01-.735.479c-.225.088-.564.192-1.188.22-.675.031-.878.038-2.586.038-1.71 0-1.912-.007-2.587-.038-.624-.028-.962-.133-1.188-.22a1.982 1.982 0 01-.736-.479 1.984 1.984 0 01-.479-.736c-.087-.225-.192-.564-.22-1.188-.031-.674-.037-.877-.037-2.586 0-1.71.006-1.91.037-2.585.028-.624.133-.963.22-1.189.116-.298.255-.512.479-.736.224-.224.437-.362.736-.479.226-.088.564-.192 1.188-.22.59-.027.82-.035 2.013-.036v.001zm3.99 1.063a.768.768 0 100 1.536.768.768 0 000-1.536zM8.714 12a3.287 3.287 0 116.574 0 3.287 3.287 0 01-6.574 0z" fill="#D7A950"/><path fill-rule="evenodd" clip-rule="evenodd" d="M12 9.867a2.133 2.133 0 110 4.266 2.133 2.133 0 010-4.266z" fill="#D7A950"/></svg>
